X:0679
T:German Dance.
M:2/4
L:1/16
Q:1/4=104
I: :: :: :|
N:perhaps the fermata indicates ABCB form?
Z:Jack Campin * www.campin.me.uk * 2009
K:G
dcBc dcBc|d2g2 g4  |edcd edcd|e2g2 g4  |dcBc dcBc|d2g2 g4  |f2`a2`c'2f2|f2ba  g4:|
a4   f2d2|F2A2`F2D2|b4   g2d2|B2d2`B2G2|a4   f2d2|F2A2`F2D2|fg`ab c'3`a|g3`b Hg4:|
b4   a2g2|f2g2`a2b2|c'4  bagf|gaba g3d |b4   a2g2|f2g2`a2b2|c'2a2`g2`f2|g4    g4:|
<end>
<start>
